X:1
T:Love’s Offering, 64.64.664
T:Love’s Offering, 64.64.664
T:Edwin Pond Parker, 1888
T:Public Domain Courtesy of the Cyber Hymnal™
C:Edwin Pond Parker, 1888
Z:Public Domain
Z:Courtesy of the Cyber Hymnal™
%%score ( 1 2 ) ( 3 4 )
L:1/8
Q:1/4=115
M:4/4
K:Ab
V:1 treble 
V:2 treble 
V:3 bass 
V:4 bass 
V:1
 [Ec]4 [EB]2 [EA]2 | [EA]3 [EG] [EG]4 | [EA]4 [EB]2 E2 | [Ec]8 | [=Ec]4 [EB]2 G2 | %5
 [GB]3 [FA] [FA]4 | [=DA]4 [DG]2 [DF]2 | E8 | [Cc]4 [CB]2 [EA]2 | [DA]3 [DG] [DF]4 | %10
 [Dd]4 [Dc]2 [DB]2 | [DB]3 [CA] [CA]4 | (c2 B2) [_DA]2 [DF]2 | E2 [=DF]2 [_DG]2 [CA]2 | c6 z2 B2 | %15
 [CA]8 |] %16
V:2
 x8 | x8 | x6 E2 | x8 | x6 G2 | x8 | x8 | E8 | x8 | x8 | x8 | x8 | =D4 x4 | E2 x6 | E4 D4 x2 | %15
 x8 |] %16
V:3
 [A,,C]4 [A,,C]2 [A,,C]2 | [B,,D]3 [B,,D] [B,,E]4 | [C,A,]4 [E,G,]2 [G,B,]2 | A,8 | %4
 [C,G,]4 [C,G,]2 [=E,C]2 | [F,C]3 [F,C] [F,C]4 | (B,2 F,2) [B,,G,]2 [B,,A,]2 | [E,G,]8 | %8
 [A,,A,]4 [A,,A,]2 [C,A,]2 | [E,B,]3 [E,B,] [E,B,]4 | [E,G,]4 [E,G,]2 [E,G,]2 | %11
 [=E,G,]3 [F,A,] [F,A,]4 | [B,,F,]4 [B,,F,]2 [B,,A,]2 | G,2 A,2 B,2 [F,A,]2 | %14
 (A,2 F,2) [E,G,]4 x2 | [A,,A,]8 |] %16
V:4
 x8 | x8 | x8 | A,8 | x8 | x8 | B,,4 x4 | x8 | x8 | x8 | x8 | x8 | x8 | E,6 x2 | E,4 x6 | x8 |] %16

